X: 14073
T: Free Gardeners, The
R: reel
M: 4/4
K: Dmajor
|:FG|A3 F D2 DE|FEDB,A,3 B,|D3 E FDAF|E4 E2 FG|
A3 F D2 DE|FEDB,A,3 B,|DFAd BGEC|D4 D2:|
|:de|f3 e d2 cd|B2 AF GFED|FAdA BAGF|E4 E2 FG|
[1 AFdA BAGF|GBge dcBA|FAdf afge|f2 d2 d2:|
[2 A3 F D2 DE|FEDB, A,3 A,|DFAd BGEC|D4 D2||

